X: 10078
T: Dicky's Other
R: jig
M: 6/8
K: Dmajor
|:df/e/d A3|D3 AFA|df/e/d A3|DF/G/A B2c|
df/e/d A3|D3 AFD|FGG FAF|EFA B2A:|
|:df/g/A FAF|cf/g/c ecA|df/g/A fdB|AFA B2c|
df/g/d cf/g/c|Bf/g/B AFD|FGG FAF|EFA B2A:|

